spray-bottle.svg

<svg height="128pt" viewBox="0 0 107 128" width="107pt" xmlns="http://www.w3.org/2000/svg"><path d="m86.42 2.65c1.34-.24 3.34-2.21 4.32-.46 1.7 1.01-.39 2.82-1.51 3.18-4.78 2.1-9.44 4.54-14.37 6.28-1.21-.52-1.85-1.62-1.26-2.86 4.03-2.51 8.57-4.05 12.82-6.14z" fill="#a2e2fb"/><path d="m26.57 8.83c10.21-2 20.7-.89 30.99-.11l-.13 1.98c-.24 2.49-.44 4.99-.57 7.49-.05.53-.15 1.59-.2 2.13-1.47.1-2.94.19-4.41.21-4.17.2-8.85-.29-12.45 2.23-2.33 1.6-2.79 4.59-3.37 7.14-.13 1-.03 2.02-.03 3.03-6.39.61-12.82.57-19.22.21.12-1.41.23-2.83.32-4.24-4.9-.12-9.83.1-14.71-.4-2.32-.17-3.05-3.65-1.27-5 6.59-7.27 15.31-12.86 25.05-14.67z" fill="#ffaffb"/><path d="m58.26 9.38c3.49-1.63 7.61.42 11.34.55-.01 3.07-.2 6.14-.41 9.21-3.48.68-6.97 1.32-10.47 1.84l-.07-1.09c-.2-3.5-.37-7-.39-10.51z" fill="#ffaffb"/><g fill="#df7ff3"><path d="m57.43 10.7.83-1.32c.02 3.51.19 7.01.39 10.51l-1.79-1.7c.13-2.5.33-5 .57-7.49z"/><path d="m39.8 22.76c3.6-2.52 8.28-2.03 12.45-2.23 2.6 6.22 6.05 12.77 12.34 15.92 3.27 2.15 7.52 2.7 10.21 5.71-8.43 1.51-16.51-2.99-22.98-7.95-2.65-1.82-4.14-4.69-5.92-7.26-3.15 1.01-6.2 2.33-9.47 2.95.58-2.55 1.04-5.54 3.37-7.14z"/><path d="m17.18 33.14c6.4.36 12.83.4 19.22-.21 2.2 3.63 2.18 7.96 1.69 12.04-3.82.93-7.69 1.82-11.65 1.89l-1.1-.05c-2.66-.48-5.28-1.17-7.9-1.82-1.29-3.81-1.58-8-.26-11.85z"/></g><path d="m78.46 12.51c8.48-.4 17.02-.37 25.51-.22 2.18.86 1.05 3.64-1.04 3.37-7.67.15-15.34.14-23.02.14-1.95.45-3.39-2.18-1.45-3.29z" fill="#acefff"/><path d="m72.68 19.77c.54-1.44 1.32-3.4 3.19-2.2 4.13 2.01 8.38 3.88 12.31 6.27 1.78 1.15-.14 3.94-1.92 2.78-4.6-2.12-9.14-4.4-13.58-6.85z" fill="#acefff"/><path d="m17.44 44.99c2.62.65 5.24 1.34 7.9 1.82-.84-.03-2.53-.08-3.37-.11-2.51 6.36-4.47 12.93-7.11 19.25-1.27.11-2.55.22-3.83.33 2.41-7.01 4.32-14.18 6.41-21.29z" fill="#fec4fe"/><path d="m26.44 46.86c3.96-.07 7.83-.96 11.65-1.89 1.96 7.75 5.1 15.25 6.3 23.15l-.04.77c-4.12.37-8.23 1.04-12.38.86-4.45-.21-8.5-2.29-12.56-3.92 2.51-6.26 4.52-12.71 7.03-18.97z" fill="#ffc6ff"/><path d="m21.97 46.7c.84.03 2.53.08 3.37.11l1.1.05c-2.51 6.26-4.52 12.71-7.03 18.97-1.52.04-3.03.08-4.55.12 2.64-6.32 4.6-12.89 7.11-19.25z" fill="#fff4ff"/><path d="m11.03 66.28c1.28-.11 2.56-.22 3.83-.33-.23 8.31-1.18 16.56-2.15 24.8.86.03 2.58.1 3.44.13 2.43-8.14 2.33-16.68 3.26-25.05 4.06 1.63 8.11 3.71 12.56 3.92 4.15.18 8.26-.49 12.38-.86l.04-.77c.08-.3.22-.91.29-1.21 5.42 17.55 8.16 35.99 7.36 54.36-12.18-6.73-26.6-6.76-40.03-4.97-3.65.58-6.99 2.23-10.26 3.87-.7-18.37 3.6-36.54 9.28-53.89z" fill="#c7baff"/><path d="m14.86 65.95c1.52-.04 3.03-.08 4.55-.12-.93 8.37-.83 16.91-3.26 25.05-.86-.03-2.58-.1-3.44-.13.97-8.24 1.92-16.49 2.15-24.8z" fill="#e7eeff"/><path d="m12.01 116.3c13.43-1.79 27.85-1.76 40.03 4.97-11.39 5.63-24.56 7.32-37 4.79-4.71-1.22-9.12-3.41-13.29-5.89 3.27-1.64 6.61-3.29 10.26-3.87z" fill="#918ae3"/></svg>

<?xml version="1.0" encoding="UTF-8" ?>
<!DOCTYPE svg PUBLIC "-//W3C//DTD SVG 1.1//EN" "http://www.w3.org/Graphics/SVG/1.1/DTD/svg11.dtd">
<svg width="107pt" height="128pt" viewBox="0 0 107 128" version="1.1" xmlns="http://www.w3.org/2000/svg">
<g id="#a2e2fbfb">
<path fill="#a2e2fb" opacity="1.00" d=" M 86.42 2.65 C 87.76 2.41 89.76 0.44 90.74 2.19 C 92.44 3.20 90.35 5.01 89.23 5.37 C 84.45 7.47 79.79 9.91 74.86 11.65 C 73.65 11.13 73.01 10.03 73.60 8.79 C 77.63 6.28 82.17 4.74 86.42 2.65 Z" />
</g>
<g id="#ffaffbff">
<path fill="#ffaffb" opacity="1.00" d=" M 26.57 8.83 C 36.78 6.83 47.27 7.94 57.56 8.72 L 57.43 10.70 C 57.19 13.19 56.99 15.69 56.86 18.19 C 56.81 18.72 56.71 19.78 56.66 20.32 C 55.19 20.42 53.72 20.51 52.25 20.53 C 48.08 20.73 43.40 20.24 39.80 22.76 C 37.47 24.36 37.01 27.35 36.43 29.90 C 36.30 30.90 36.40 31.92 36.40 32.93 C 30.01 33.54 23.58 33.50 17.18 33.14 C 17.30 31.73 17.41 30.31 17.50 28.90 C 12.60 28.78 7.67 29.00 2.79 28.50 C 0.47 28.33 -0.26 24.85 1.52 23.50 C 8.11 16.23 16.83 10.64 26.57 8.83 Z" />
<path fill="#ffaffb" opacity="1.00" d=" M 58.26 9.38 C 61.75 7.75 65.87 9.80 69.60 9.93 C 69.59 13.00 69.40 16.07 69.19 19.14 C 65.71 19.82 62.22 20.46 58.72 20.98 L 58.65 19.89 C 58.45 16.39 58.28 12.89 58.26 9.38 Z" />
</g>
<g id="#df7ff3ff">
<path fill="#df7ff3" opacity="1.00" d=" M 57.43 10.70 L 58.26 9.38 C 58.28 12.89 58.45 16.39 58.65 19.89 L 56.86 18.19 C 56.99 15.69 57.19 13.19 57.43 10.70 Z" />
<path fill="#df7ff3" opacity="1.00" d=" M 39.80 22.76 C 43.40 20.24 48.08 20.73 52.25 20.53 C 54.85 26.75 58.30 33.30 64.59 36.45 C 67.86 38.60 72.11 39.15 74.80 42.16 C 66.37 43.67 58.29 39.17 51.82 34.21 C 49.17 32.39 47.68 29.52 45.90 26.95 C 42.75 27.96 39.70 29.28 36.43 29.90 C 37.01 27.35 37.47 24.36 39.80 22.76 Z" />
<path fill="#df7ff3" opacity="1.00" d=" M 17.18 33.14 C 23.58 33.50 30.01 33.54 36.40 32.93 C 38.60 36.56 38.58 40.89 38.09 44.97 C 34.27 45.90 30.40 46.79 26.44 46.86 L 25.34 46.81 C 22.68 46.33 20.06 45.64 17.44 44.99 C 16.15 41.18 15.86 36.99 17.18 33.14 Z" />
</g>
<g id="#acefffff">
<path fill="#acefff" opacity="1.00" d=" M 78.46 12.51 C 86.94 12.11 95.48 12.14 103.97 12.29 C 106.15 13.15 105.02 15.93 102.93 15.66 C 95.26 15.81 87.59 15.80 79.91 15.80 C 77.96 16.25 76.52 13.62 78.46 12.51 Z" />
<path fill="#acefff" opacity="1.00" d=" M 72.68 19.77 C 73.22 18.33 74.00 16.37 75.87 17.57 C 80.00 19.58 84.25 21.45 88.18 23.84 C 89.96 24.99 88.04 27.78 86.26 26.62 C 81.66 24.50 77.12 22.22 72.68 19.77 Z" />
</g>
<g id="#fec4fefe">
<path fill="#fec4fe" opacity="1.00" d=" M 17.44 44.99 C 20.06 45.64 22.68 46.33 25.34 46.81 C 24.50 46.78 22.81 46.73 21.97 46.70 C 19.46 53.06 17.50 59.63 14.86 65.95 C 13.59 66.06 12.31 66.17 11.03 66.28 C 13.44 59.27 15.35 52.10 17.44 44.99 Z" />
</g>
<g id="#ffc6ffff">
<path fill="#ffc6ff" opacity="1.00" d=" M 26.44 46.86 C 30.40 46.79 34.27 45.90 38.09 44.97 C 40.05 52.72 43.19 60.22 44.39 68.12 L 44.35 68.89 C 40.23 69.26 36.12 69.93 31.97 69.75 C 27.52 69.54 23.47 67.46 19.41 65.83 C 21.92 59.57 23.93 53.12 26.44 46.86 Z" />
</g>
<g id="#fff4ffff">
<path fill="#fff4ff" opacity="1.00" d=" M 21.97 46.70 C 22.81 46.73 24.50 46.78 25.34 46.81 L 26.44 46.86 C 23.93 53.12 21.92 59.57 19.41 65.83 C 17.89 65.87 16.38 65.91 14.86 65.95 C 17.50 59.63 19.46 53.06 21.97 46.70 Z" />
</g>
<g id="#c7baffff">
<path fill="#c7baff" opacity="1.00" d=" M 11.03 66.28 C 12.31 66.17 13.59 66.06 14.86 65.95 C 14.63 74.26 13.68 82.51 12.71 90.75 C 13.57 90.78 15.29 90.85 16.15 90.88 C 18.58 82.74 18.48 74.20 19.41 65.83 C 23.47 67.46 27.52 69.54 31.97 69.75 C 36.12 69.93 40.23 69.26 44.35 68.89 L 44.39 68.12 C 44.47 67.82 44.61 67.21 44.68 66.91 C 50.10 84.46 52.84 102.90 52.04 121.27 C 39.86 114.54 25.44 114.51 12.01 116.30 C 8.36 116.88 5.02 118.53 1.75 120.17 C 1.05 101.80 5.35 83.63 11.03 66.28 Z" />
</g>
<g id="#e7eeffff">
<path fill="#e7eeff" opacity="1.00" d=" M 14.86 65.95 C 16.38 65.91 17.89 65.87 19.41 65.83 C 18.48 74.20 18.58 82.74 16.15 90.88 C 15.29 90.85 13.57 90.78 12.71 90.75 C 13.68 82.51 14.63 74.26 14.86 65.95 Z" />
</g>
<g id="#918ae3ff">
<path fill="#918ae3" opacity="1.00" d=" M 12.01 116.30 C 25.44 114.51 39.86 114.54 52.04 121.27 C 40.65 126.90 27.48 128.59 15.04 126.06 C 10.33 124.84 5.92 122.65 1.75 120.17 C 5.02 118.53 8.36 116.88 12.01 116.30 Z" />
</g>
</svg>
